icons/football-line.svg

<svg viewBox="0 0 24 24" fill="currentColor" xmlns="http://www.w3.org/2000/svg"><path d="M12 2C17.5228 2 22 6.47715 22 12C22 17.5228 17.5228 22 12 22C6.47715 22 2 17.5228 2 12C2 6.47715 6.47715 2 12 2ZM13.6695 15.9999H10.3295L8.95053 17.8969L9.5044 19.6031C10.2897 19.8607 11.1286 20 12 20C12.8714 20 13.7103 19.8607 14.4956 19.6031L15.0485 17.8969L13.6695 15.9999ZM5.29354 10.8719L4.00222 11.8095L4 12C4 13.7297 4.54894 15.3312 5.4821 16.6397L7.39254 16.6399L8.71453 14.8199L7.68654 11.6499L5.29354 10.8719ZM18.7055 10.8719L16.3125 11.6499L15.2845 14.8199L16.6065 16.6399L18.5179 16.6397C19.4511 15.3312 20 13.7297 20 12L19.997 11.81L18.7055 10.8719ZM12 9.536L9.656 11.238L10.552 14H13.447L14.343 11.238L12 9.536ZM14.2914 4.33299L12.9995 5.27293V7.78993L15.6935 9.74693L17.9325 9.01993L18.4867 7.3168C17.467 5.90685 15.9988 4.84254 14.2914 4.33299ZM9.70757 4.33329C8.00021 4.84307 6.53216 5.90762 5.51261 7.31778L6.06653 9.01993L8.30554 9.74693L10.9995 7.78993V5.27293L9.70757 4.33329Z"/></svg>

<svg xmlns="http://www.w3.org/2000/svg" viewBox="0 0 24 24">
    <g>
        <path fill="none" d="M0 0h24v24H0z"/>
        <path fill-rule="nonzero" d="M12 2c5.523 0 10 4.477 10 10s-4.477 10-10 10S2 17.523 2 12 6.477 2 12 2zm1.67 14h-3.34l-1.38 1.897.554 1.706A7.993 7.993 0 0 0 12 20c.871 0 1.71-.14 2.496-.397l.553-1.706L13.669 16zm-8.376-5.128l-1.292.937L4 12c0 1.73.549 3.331 1.482 4.64h1.91l1.323-1.82-1.028-3.17-2.393-.778zm13.412 0l-2.393.778-1.028 3.17 1.322 1.82h1.91A7.964 7.964 0 0 0 20 12l-.003-.19-1.291-.938zM12 9.536l-2.344 1.702.896 2.762h2.895l.896-2.762L12 9.536zm2.291-5.203L13 5.273V7.79l2.694 1.957 2.239-.727.554-1.703a8.014 8.014 0 0 0-4.196-2.984zm-4.583 0a8.014 8.014 0 0 0-4.195 2.985l.554 1.702 2.239.727L11 7.79V5.273l-1.292-.94z"/>
    </g>
</svg>
